icons/emailjs/emailjs-original.svg

<svg xmlns="http://www.w3.org/2000/svg" viewBox="0 0 128 128"><path fill="#ff8434" d="M 73.800781 0 C 70.480469 0 67.789062 2.6875 67.789062 6 L 67.789062 54.078125 C 67.789062 57.390625 70.480469 60.078125 73.800781 60.078125 L 121.97266 60.078125 C 125.29297 60.078125 127.98438 57.390625 127.98438 54.078125 L 127.98438 6 C 127.98437 2.6875 125.29297 0 121.97266 0 L 73.800781 0 z M 46.587891 9.8300781 C 44.716797 9.8300781 42.845703 10.541016 41.417969 11.964844 L 4.0664062 49.25 C -1.3359377 54.644531 -1.3359377 63.390625 4.0664062 68.785156 L 59.351562 123.95312 C 64.757812 129.34766 73.519531 129.34766 78.925781 123.95312 L 116.27734 86.675781 C 119.13281 83.828125 119.13281 79.207031 116.27734 76.359375 L 115.99219 76.078125 C 114.62109 74.707031 112.76172 73.9375 110.82031 73.941406 L 64.179688 73.941406 C 61.453125 73.941406 58.835938 72.863281 56.910156 70.9375 C 54.980469 69.015625 53.898438 66.402344 53.898438 63.683594 L 53.898438 17.125 C 53.902344 15.1875 53.128906 13.332031 51.757812 11.964844 C 50.330078 10.541016 48.458984 9.8300781 46.587891 9.8300781 z " /></svg>

<svg xmlns="http://www.w3.org/2000/svg" viewBox="0 0 128 128"><path fill="#ff8434" d="M73.8 0c-3.32 0-6.01 2.688-6.01 6v48.078c0 3.313 2.69 6 6.01 6h48.173c3.32 0 6.011-2.687 6.011-6V6c0-3.312-2.691-6-6.011-6zM46.589 9.83c-1.871 0-3.742.711-5.17 2.135L4.066 49.25c-5.402 5.395-5.402 14.14 0 19.535l55.286 55.168c5.406 5.395 14.168 5.395 19.574 0l37.351-37.277a7.283 7.283 0 0 0 0-10.317l-.285-.28a7.3 7.3 0 0 0-5.172-2.138H64.18a10.28 10.28 0 0 1-7.27-3.004 10.24 10.24 0 0 1-3.012-7.253V17.125a7.27 7.27 0 0 0-2.14-5.16 7.3 7.3 0 0 0-5.17-2.135"/></svg>
